svg/emoji_u26a0.svg

<?xml version="1.0" encoding="UTF-8"?>
<svg width="128" height="128" enable-background="new 0 0 128 128" xmlns="http://www.w3.org/2000/svg"><linearGradient id="b" x1="64" x2="64" y1="37" y2="130.84" gradientUnits="userSpaceOnUse"><stop stop-color="#FFEB3B" offset="0"/><stop stop-color="#FFDC28" offset=".419"/><stop stop-color="#FFC107" offset=".9954"/></linearGradient><path d="m56.84 8.42-51.99 104c-2.65 5.32 1.21 11.58 7.16 11.58h103.98c5.95 0 9.82-6.26 7.16-11.58l-51.99-104c-2.95-5.89-11.37-5.89-14.32 0z" fill="url(#b)"/><g opacity=".2"><path d="m64 7c1.93 0 3.61 1.03 4.47 2.76l51.99 104c0.79 1.58 0.71 3.36-0.22 4.86-0.93 1.51-2.48 2.37-4.25 2.37h-103.98c-1.77 0-3.32-0.86-4.25-2.37s-1.01-3.28-0.22-4.86l51.99-104c0.86-1.73 2.54-2.76 4.47-2.76m0-3c-2.84 0-5.68 1.47-7.16 4.42l-51.99 104c-2.65 5.32 1.21 11.58 7.16 11.58h103.98c5.95 0 9.82-6.26 7.16-11.58l-51.99-104c-1.48-2.95-4.32-4.42-7.16-4.42z" fill="#424242"/></g><g fill="#424242" opacity=".2"><path d="m64 34c4.63 0 8.29 3.66 7.98 7.98l-3.42 48.03c-0.16 2.24-2.15 3.99-4.56 3.99s-4.4-1.75-4.56-3.99l-3.42-48.03c-0.31-4.32 3.35-7.98 7.98-7.98m0-3c-3.14 0-6.14 1.28-8.23 3.52-1.97 2.12-2.95 4.84-2.75 7.67l3.42 48.03c0.28 3.8 3.6 6.78 7.56 6.78s7.28-2.98 7.55-6.78l3.42-48.03c0.2-2.83-0.77-5.55-2.75-7.67-2.08-2.24-5.08-3.52-8.22-3.52z"/><path d="m64 98c3.31 0 6 2.69 6 6s-2.69 6-6 6-6-2.69-6-6 2.69-6 6-6m0-3c-4.96 0-9 4.04-9 9s4.04 9 9 9 9-4.04 9-9-4.04-9-9-9z"/></g><g fill="url(#a)"><linearGradient id="a" x1="64" x2="64" y1="32.25" y2="110.94" gradientUnits="userSpaceOnUse"><stop stop-color="#424242" offset="0"/><stop stop-color="#212121" offset="1"/></linearGradient><path d="m64 34c4.63 0 8.29 3.66 7.98 7.98l-3.42 48.03c-0.16 2.24-2.15 3.99-4.56 3.99s-4.4-1.75-4.56-3.99l-3.42-48.03c-0.31-4.32 3.35-7.98 7.98-7.98z"/><circle cx="64" cy="104" r="6"/></g></svg>

<svg width="128" height="128" style="enable-background:new 0 0 128 128;" xmlns="http://www.w3.org/2000/svg" xmlns:xlink="http://www.w3.org/1999/xlink">
  <g>
    <g>
      <linearGradient id="SVGID_1_" gradientUnits="userSpaceOnUse" x1="64" x2="64" y1="37" y2="130.8393">
        <stop offset="0" style="stop-color:#FFEB3B"/>
        <stop offset="0.419" style="stop-color:#FFDC28"/>
        <stop offset="0.9954" style="stop-color:#FFC107"/>
      </linearGradient>
      <path d="M56.84,8.42l-51.99,104C2.2,117.74,6.06,124,12.01,124h103.98c5.95,0,9.82-6.26,7.16-11.58 l-51.99-104C68.21,2.53,59.79,2.53,56.84,8.42z" style="fill:url(#SVGID_1_);"/>
    </g>
    <g style="opacity:0.2;">
      <path d="M64,7c1.93,0,3.61,1.03,4.47,2.76l51.99,104c0.79,1.58,0.71,3.36-0.22,4.86 c-0.93,1.51-2.48,2.37-4.25,2.37H12.01c-1.77,0-3.32-0.86-4.25-2.37c-0.93-1.51-1.01-3.28-0.22-4.86l51.99-104 C60.39,8.03,62.07,7,64,7 M64,4c-2.84,0-5.68,1.47-7.16,4.42l-51.99,104C2.2,117.74,6.06,124,12.01,124h103.98 c5.95,0,9.82-6.26,7.16-11.58l-51.99-104C69.68,5.47,66.84,4,64,4L64,4z" style="fill:#424242;"/>
    </g>
    <g style="opacity:0.2;">
      <path d="M64,34c4.63,0,8.29,3.66,7.98,7.98l-3.42,48.03C68.4,92.25,66.41,94,64,94 c-2.41,0-4.4-1.75-4.56-3.99l-3.42-48.03C55.71,37.66,59.37,34,64,34 M64,31c-3.14,0-6.14,1.28-8.23,3.52 c-1.97,2.12-2.95,4.84-2.75,7.67l3.42,48.03C56.72,94.02,60.04,97,64,97s7.28-2.98,7.55-6.78l3.42-48.03 c0.2-2.83-0.77-5.55-2.75-7.67C70.14,32.28,67.14,31,64,31L64,31z" style="fill:#424242;"/>
      <path d="M64,98c3.31,0,6,2.69,6,6s-2.69,6-6,6c-3.31,0-6-2.69-6-6S60.69,98,64,98 M64,95 c-4.96,0-9,4.04-9,9s4.04,9,9,9s9-4.04,9-9S68.96,95,64,95L64,95z" style="fill:#424242;"/>
    </g>
    <g>
      <linearGradient id="SVGID_2_" gradientUnits="userSpaceOnUse" x1="64" x2="64" y1="32.25" y2="110.9371">
        <stop offset="0" style="stop-color:#424242"/>
        <stop offset="1" style="stop-color:#212121"/>
      </linearGradient>
      <path d="M64,34L64,34c4.63,0,8.29,3.66,7.98,7.98l-3.42,48.03C68.4,92.25,66.41,94,64,94h0 c-2.41,0-4.4-1.75-4.56-3.99l-3.42-48.03C55.71,37.66,59.37,34,64,34z" style="fill:url(#SVGID_2_);"/>
      <linearGradient id="SVGID_3_" gradientUnits="userSpaceOnUse" x1="64" x2="64" y1="32.25" y2="110.9371">
        <stop offset="0" style="stop-color:#424242"/>
        <stop offset="1" style="stop-color:#212121"/>
      </linearGradient>
      <circle cx="64" cy="104" r="6" style="fill:url(#SVGID_3_);"/>
    </g>
  </g>
</svg>
